X: 20661
M: 2/4
L: 1/8
K: G
V: 1 staves=3
|:\
cege | dBB2 | d(3(d/e/d/) cA | GBBG |\
cege | dBB2 | d(3(d/e/d/) cA | AGG2 :|
|:\
|:\
V: 2
z |:\
|:\
|:\
|:\
E2GB | d2cd | e[cA]DF | E2z2 :|
V: 3 clef=bass middle=d
z |:\
d2d2 | g2g2 | B2c2 | g2g2 |\
d2d2 | g2g2 | B2c2 | G2G2 :|
|:\
c2c2 | g2g2 | B2c2 | g2g2 |\
c2c2 | g2g2 | B2c2 | G2G2 :|
|:\
g2g2 | g2g2 | g2g2 | c2cz |\
g2g2 | g2g2 | g2g2 | c2c2 :|
|:\
f2f2 | f2f2 | f2f2 | c2cz |\
g2g2 | g2g2 | cefg | c2z2 :|


